icon-svg/fanduel.svg

<svg xmlns="http://www.w3.org/2000/svg" fill="#44739e" viewBox="0 0 24 24"><path d="M12.891 5.636a.184.184 0 0 1-.166-.238 23.1 23.1 0 0 1 1.292-3.066.264.264 0 0 1 .288-.144 19.95 19.95 0 0 1 7.5 2.416.362.362 0 0 1 .195.363 20.1 20.1 0 0 1-8.722 16.368.185.185 0 0 1-.283-.086 24.1 24.1 0 0 1-.947-3.182.292.292 0 0 1 .107-.328 16.485 16.485 0 0 0 6.154-10.877 16.47 16.47 0 0 0-5.423-1.226ZM6.3 9.694a13.57 13.57 0 0 1 4.1-1.153c.149-.023.212.081.194.2a26.1 26.1 0 0 0-.337 3.21.232.232 0 0 1-.216.228 10.33 10.33 0 0 0-2.329.759 16.6 16.6 0 0 0 2.617 3.443.76.76 0 0 1 .211.44 24.85 24.85 0 0 0 1.3 4.884.172.172 0 0 1-.013.2.187.187 0 0 1-.225 0A20.112 20.112 0 0 1 2 4.967a.379.379 0 0 1 .193-.367 20.16 20.16 0 0 1 10.285-2.542.177.177 0 0 1 .152.274 22.34 22.34 0 0 0-1.225 3.1.24.24 0 0 1-.247.189A16.57 16.57 0 0 0 5.69 6.857 16.9 16.9 0 0 0 6.3 9.69v.01Z"/></svg>

<?xml version="1.0" encoding="UTF-8"?>
<svg width="24px" fill="#44739e" height="24px" viewBox="0 0 24 24" version="1.1" xmlns="http://www.w3.org/2000/svg" xmlns:xlink="http://www.w3.org/1999/xlink">
            <path d="M 12.891,5.636 A 0.184,0.184 0 0 1 12.725,5.398 23.106,23.106 0 0 1 14.017,2.332 0.264,0.264 0 0 1 14.305,2.188 19.949,19.949 0 0 1 21.805,4.604 0.362,0.362 0 0 1 22,4.967 20.1,20.1 0 0 1 13.278,21.335 0.185,0.185 0 0 1 12.995,21.249 24.108,24.108 0 0 1 12.048,18.067 0.292,0.292 0 0 1 12.155,17.739 16.485,16.485 0 0 0 18.309,6.862 16.474,16.474 0 0 0 12.886,5.636 Z M 6.3,9.694 a 13.567,13.567 0 0 1 4.1,-1.153 c 0.149,-0.023 0.212,0.081 0.194,0.2 a 26.114,26.114 0 0 0 -0.337,3.21 0.232,0.232 0 0 1 -0.216,0.228 10.329,10.329 0 0 0 -2.329,0.759 16.6,16.6 0 0 0 2.617,3.443 0.761,0.761 0 0 1 0.211,0.44 24.846,24.846 0 0 0 1.3,4.884 0.172,0.172 0 0 1 -0.013,0.2 0.187,0.187 0 0 1 -0.225,0 A 20.112,20.112 0 0 1 2,4.967 0.379,0.379 0 0 1 2.193,4.6 20.162,20.162 0 0 1 12.478,2.058 0.177,0.177 0 0 1 12.63,2.332 22.338,22.338 0 0 0 11.405,5.432 0.24,0.24 0 0 1 11.158,5.621 16.574,16.574 0 0 0 5.69,6.857 16.914,16.914 0 0 0 6.3,9.69 V 9.7 Z"/>

</svg>
